X:31
T:Dr. Kate's Fancy
R:reel
C:Paul S. Cranford
O:Cape Breton Island
S:http://www.cranfordpub.com
D:currently unrecorded
B:currently unpublished in book form
Z:psc
H:                                                        copyrights Cranford Publications, SOCAN
L:1/8
Q:333
M:c|
K:C
({D}E2) ED EC C/C/C|ECEG c2 cd|eced cGcA|GCGE D2 CD|
E2 ED EC C/C/C|ECEG c2 cd|eced cGcA|[1Gged c/c/c cD:|[2Gged c/c/c||
|:GA|c2 gc acgc|Gcec d/d/d ed|c/c/c gc acgc'|ecdB c2 GA|
c2 gc acgc|Gcec d/d/d cd|eced cGcA|[1Gged c2:|[2Gged c/c/c cD|]
